X: 39790
T: That's Right Too!
R: reel
M: 4/4
K: Dmajor
"D" D2 FA FEED|"D" d2 ef edBd|"D" D2 FA FEED|"G" BcdD "A" FEEF|
"D" D2 FA FEED|"D" dfef edBA|"G" BDD2 BcdB|"A" AFEF D4:|
|:"D" afef d3 B|A2 FD "G" EDB,D|"D" afef d3 B|Affd "A/C#" f3e|
"Bm" d2ef edBA|"G" BcdD FEED|"D" BDD2 BcdB|"A" AFEF "D" D4:|

